dist/img/icons/about-icon-2.svg

<?xml version="1.0" encoding="UTF-8" standalone="no"?>
<svg
   xmlns:dc="http://purl.org/dc/elements/1.1/"
   xmlns:cc="http://creativecommons.org/ns#"
   xmlns:rdf="http://www.w3.org/1999/02/22-rdf-syntax-ns#"
   xmlns:svg="http://www.w3.org/2000/svg"
   xmlns="http://www.w3.org/2000/svg"
   xmlns:sodipodi="http://sodipodi.sourceforge.net/DTD/sodipodi-0.dtd"
   xmlns:inkscape="http://www.inkscape.org/namespaces/inkscape"
   width="124.77763"
   height="106.07674"
   viewBox="0 0 124.77763 106.07674"
   fill="none"
   version="1.1"
   id="svg25"
   sodipodi:docname="about-icon-2.svg"
   inkscape:version="1.0.2 (e86c870879, 2021-01-15, custom)">
  <metadata
     id="metadata29">
    <rdf:RDF>
      <cc:Work
         rdf:about="">
        <dc:format>image/svg+xml</dc:format>
        <dc:type
           rdf:resource="http://purl.org/dc/dcmitype/StillImage" />
        <dc:title></dc:title>
      </cc:Work>
    </rdf:RDF>
  </metadata>
  <sodipodi:namedview
     pagecolor="#ffffff"
     bordercolor="#666666"
     borderopacity="1"
     objecttolerance="10"
     gridtolerance="10"
     guidetolerance="10"
     inkscape:pageopacity="0"
     inkscape:pageshadow="2"
     inkscape:window-width="2880"
     inkscape:window-height="1526"
     id="namedview27"
     showgrid="false"
     inkscape:zoom="6.631579"
     inkscape:cx="88.871625"
     inkscape:cy="82.578928"
     inkscape:window-x="-11"
     inkscape:window-y="1608"
     inkscape:window-maximized="1"
     inkscape:current-layer="svg25"
     inkscape:document-rotation="0" />
  <g
     clip-path="url(#clip0)"
     id="g18"
     style="fill:#ffffff"
     transform="matrix(1.6418391,0,0,1.6418391,0,-9.3507826)">
    <path
       d="m 74.732,39.8958 h -1.924 l 1.52,-3.8 h 0.404 c 0.6996,0 1.2667,-0.5671 1.2667,-1.2666 0,-0.6995 -0.5671,-1.2667 -1.2667,-1.2667 h -1.2666 c -0.5181,-5e-4 -0.9841,0.3146 -1.1767,0.7955 l -2.5334,6.3333 c -0.2603,0.6493 0.0553,1.3867 0.7046,1.647 0.1501,0.0602 0.3105,0.091 0.4722,0.0909 h 3.7999 c 0.6996,0 1.2667,-0.5672 1.2667,-1.2667 0,-0.6995 -0.5671,-1.2667 -1.2667,-1.2667 z"
       fill="white"
       id="path2"
       style="fill:#ffffff" />
    <path
       d="m 22.801,50.0312 c -2.7982,0 -5.0666,2.2685 -5.0666,5.0667 0,2.7982 2.2684,5.0667 5.0666,5.0667 2.7983,0 5.0667,-2.2685 5.0667,-5.0667 0,-2.7984 -2.2684,-5.0667 -5.0667,-5.0667 z m 0,7.6001 c -1.3992,0 -2.5333,-1.1342 -2.5333,-2.5334 0,-1.3992 1.1341,-2.5333 2.5333,-2.5333 1.3992,0 2.5334,1.1341 2.5334,2.5333 0,1.3992 -1.1342,2.5334 -2.5334,2.5334 z"
       fill="white"
       id="path4"
       style="fill:#ffffff" />
    <path
       d="M 44.3333,55.0953 C 44.361,53.467 43.339,52.0054 41.8,51.4727 v -20.444 c 0,-0.336 -0.1336,-0.6581 -0.3711,-0.8956 l -2.2408,-2.2407 -2.47,-16.0563 c -0.095,-0.6178 -0.6263,-1.0738 -1.2514,-1.0741 h -22.8 V 6.96198 C 12.6667,6.26246 12.0995,5.69531 11.4,5.69531 H 1.26667 C 0.56715,5.69531 0,6.26246 0,6.96198 0,7.6615 0.56715,8.22865 1.26667,8.22865 H 10.1333 V 44.962 H 1.26667 C 0.56715,44.962 0,45.5291 0,46.2287 c 0,0.6995 0.56715,1.2666 1.26667,1.2666 H 11.4 c 0.6995,0 1.2667,-0.5671 1.2667,-1.2666 V 13.2953 h 21.7182 l 2.3687,15.3926 c 0.0408,0.2661 0.1656,0.5125 0.3559,0.703 l 2.1572,2.1622 v 19.7422 h -7.0744 c -2.0637,-5.193 -7.9464,-7.7298 -13.1396,-5.6661 -4.3095,1.7127 -6.9032,6.1357 -6.2936,10.7328 H 1.26667 C 0.56715,56.362 0,56.9291 0,57.6287 c 0,0.6995 0.56715,1.2666 1.26667,1.2666 H 13.4127 c 2.0927,5.1845 7.9921,7.6908 13.1765,5.5981 2.5486,-1.0287 4.5694,-3.0495 5.5981,-5.5981 h 8.5994 c 2.0265,-0.075 3.6114,-1.7733 3.5466,-3.8 z m -21.5333,7.6 c -4.1974,0 -7.6,-3.4026 -7.6,-7.6 0.0041,-4.1957 3.4043,-7.5959 7.6,-7.6 4.1974,0 7.6,3.4026 7.6,7.6 0,4.1973 -3.4026,7.6 -7.6,7.6 z m 18.9683,-7.315 c -0.11,0.4894 -0.4922,0.8716 -0.9816,0.9817 h -7.8534 v -2.5333 h 7.8534 c 0.6995,0.1573 1.139,0.8519 0.9816,1.5516 z"
       fill="white"
       id="path6"
       style="fill:#ffffff" />
    <path
       d="m 74.7315,56.3628 h -1.3807 c -0.6954,-4.1344 -4.6107,-6.9224 -8.7451,-6.227 -3.1906,0.5366 -5.6903,3.0364 -6.2269,6.227 h -2.6473 v -3.8 c 0,-0.6996 -0.5672,-1.2667 -1.2667,-1.2667 h -2.5333 v -7.7102 l 12.7857,-1.1565 c 0.4577,-0.0413 0.8572,-0.3272 1.0437,-0.7473 l 4.7323,-10.6527 h 4.2383 c 0.6995,0 1.2666,-0.5671 1.2666,-1.2666 0,-0.6996 -0.5671,-1.2667 -1.2666,-1.2667 h -5.0667 c -0.5007,0 -0.9544,0.2948 -1.1577,0.7524 l -4.764,10.7198 -13.1872,1.1945 c -0.6568,0.0566 -1.1602,0.6075 -1.1578,1.2666 v 9.001 c -1.5589,0.5313 -2.5875,2.0195 -2.5333,3.6657 -0.1075,1.9787 1.3993,3.6743 3.3769,3.8 h 8.1371 c 0.6954,4.1344 4.6107,6.9223 8.7451,6.2269 3.1905,-0.5366 5.6903,-3.0363 6.2269,-6.2269 h 1.3807 c 0.6995,0 1.2666,-0.5672 1.2666,-1.2667 0,-0.6995 -0.5671,-1.2666 -1.2666,-1.2666 z m -21.5334,0 h -2.9513 c -0.399,0 -0.8436,-0.5206 -0.8436,-1.2667 0,-0.7461 0.4446,-1.2667 0.8436,-1.2667 h 2.9513 z m 12.6667,6.3333 c -2.7982,0 -5.0667,-2.2685 -5.0667,-5.0667 0,-2.7982 2.2685,-5.0666 5.0667,-5.0666 2.7982,0 5.0667,2.2684 5.0667,5.0666 0,2.7982 -2.2685,5.0667 -5.0667,5.0667 z"
       fill="white"
       id="path8"
       style="fill:#ffffff" />
    <path
       d="m 32.9315,28.3594 -1.2667,-11.4 C 31.5934,16.3148 31.0467,15.8281 30.3982,15.8321 H 17.7315 c -0.6995,0 -1.2667,0.5671 -1.2667,1.2666 v 11.4 c 0,0.6995 0.5672,1.2667 1.2667,1.2667 h 13.9333 c 0.6996,0.0043 1.2702,-0.5594 1.2743,-1.2589 3e-4,-0.0493 -0.0022,-0.0983 -0.0076,-0.1471 z M 18.9982,27.2321 v -8.8667 h 10.2663 l 0.9855,8.8667 z"
       fill="white"
       id="path10"
       style="fill:#ffffff" />
    <path
       d="m 35.4698,42.4297 c -0.6995,0 -1.2667,0.5671 -1.2667,1.2667 v 3.8 c 0,0.6995 0.5672,1.2666 1.2667,1.2666 0.6995,0 1.2667,-0.5671 1.2667,-1.2666 v -3.8 c 0,-0.6997 -0.5672,-1.2667 -1.2667,-1.2667 z"
       fill="white"
       id="path12"
       style="fill:#ffffff" />
    <path
       d="m 56.6409,66.8691 -3.8038,-3.8 c -0.4931,-0.4962 -1.2951,-0.4989 -1.7914,-0.0057 -0.0444,0.044 -0.0854,0.0912 -0.1226,0.1412 l -2.57,3.42 -2.8766,-5.7595 c -0.3126,-0.6259 -1.0734,-0.8799 -1.6991,-0.5673 -0.0931,0.0465 -0.1802,0.1043 -0.2592,0.1721 l -6.7817,5.8077 V 62.698 c 0,-0.6995 -0.5672,-1.2667 -1.2667,-1.2667 -0.6995,0 -1.2667,0.5672 -1.2667,1.2667 v 6.3333 c 0,0.6995 0.5672,1.2667 1.2669,1.2665 0.3024,0 0.5948,-0.1083 0.8244,-0.3051 l 7.6342,-6.5436 3.0742,6.1484 c 0.3097,0.6273 1.0692,0.8848 1.6965,0.5752 0.1805,-0.0889 0.3371,-0.2197 0.4568,-0.3814 l 2.9235,-3.8988 2.7702,2.7677 c 0.5032,0.4861 1.305,0.4721 1.7911,-0.0311 0.4742,-0.4909 0.4742,-1.2692 0,-1.76 z"
       fill="white"
       id="path14"
       style="fill:#ffffff" />
    <path
       d="m 60.9634,24.7066 c -0.3539,-0.044 -0.71,0.063 -0.9809,0.2951 l -7.5569,6.4778 -3.1211,-7.2821 c -0.2758,-0.643 -1.0205,-0.9405 -1.6634,-0.6649 -0.3634,0.1558 -0.6332,0.4725 -0.7293,0.8561 L 44.3784,34.522 c -0.1703,0.677 0.2393,1.3642 0.9158,1.5365 0.6787,0.1698 1.3665,-0.2423 1.5365,-0.9209 l 1.6213,-6.4854 2.3193,5.41 c 0.2757,0.643 1.0205,0.9406 1.6633,0.6648 0.1181,-0.0506 0.2278,-0.1189 0.3254,-0.2025 l 6.3789,-5.4682 -0.8601,6.8831 c -0.0866,0.694 0.4057,1.3267 1.0995,1.4136 0.0524,0.0071 0.1055,0.0104 0.1583,0.0101 0.6402,0.0018 1.181,-0.4743 1.2604,-1.1096 l 1.2666,-10.1333 c 0.0865,-0.6943 -0.4061,-1.3272 -1.1002,-1.4136 z"
       fill="white"
       id="path16"
       style="fill:#ffffff" />
  </g>
  <defs
     id="defs23">
    <clipPath
       id="clip0">
      <rect
         width="76"
         height="76"
         fill="#ffffff"
         id="rect20"
         x="0"
         y="0" />
    </clipPath>
  </defs>
</svg>

<svg width="76" height="76" viewBox="0 0 76 76" fill="none" xmlns="http://www.w3.org/2000/svg">
<g clip-path="url(#clip0)">
<path d="M74.732 39.8958H72.808L74.328 36.0958H74.732C75.4316 36.0958 75.9987 35.5287 75.9987 34.8292C75.9987 34.1297 75.4316 33.5625 74.732 33.5625H73.4654C72.9473 33.562 72.4813 33.8771 72.2887 34.358L69.7553 40.6913C69.495 41.3406 69.8106 42.078 70.4599 42.3383C70.61 42.3985 70.7704 42.4293 70.9321 42.4292H74.732C75.4316 42.4292 75.9987 41.862 75.9987 41.1625C75.9987 40.463 75.4316 39.8958 74.732 39.8958Z" fill="white"/>
<path d="M22.801 50.0312C20.0028 50.0312 17.7344 52.2997 17.7344 55.0979C17.7344 57.8961 20.0028 60.1646 22.801 60.1646C25.5993 60.1646 27.8677 57.8961 27.8677 55.0979C27.8677 52.2995 25.5993 50.0312 22.801 50.0312ZM22.801 57.6313C21.4018 57.6313 20.2677 56.4971 20.2677 55.0979C20.2677 53.6987 21.4018 52.5646 22.801 52.5646C24.2002 52.5646 25.3344 53.6987 25.3344 55.0979C25.3344 56.4971 24.2002 57.6313 22.801 57.6313Z" fill="white"/>
<path d="M44.3333 55.0953C44.361 53.467 43.339 52.0054 41.8 51.4727V31.0287C41.8 30.6927 41.6664 30.3706 41.4289 30.1331L39.1881 27.8924L36.7181 11.8361C36.6231 11.2183 36.0918 10.7623 35.4667 10.762H12.6667V6.96198C12.6667 6.26246 12.0995 5.69531 11.4 5.69531H1.26667C0.56715 5.69531 0 6.26246 0 6.96198C0 7.6615 0.56715 8.22865 1.26667 8.22865H10.1333V44.962H1.26667C0.56715 44.962 0 45.5291 0 46.2287C0 46.9282 0.56715 47.4953 1.26667 47.4953H11.4C12.0995 47.4953 12.6667 46.9282 12.6667 46.2287V13.2953H34.3849L36.7536 28.6879C36.7944 28.954 36.9192 29.2004 37.1095 29.3909L39.2667 31.5531V51.2953H32.1923C30.1286 46.1023 24.2459 43.5655 19.0527 45.6292C14.7432 47.3419 12.1495 51.7649 12.7591 56.362H1.26667C0.56715 56.362 0 56.9291 0 57.6287C0 58.3282 0.56715 58.8953 1.26667 58.8953H13.4127C15.5054 64.0798 21.4048 66.5861 26.5892 64.4934C29.1378 63.4647 31.1586 61.4439 32.1873 58.8953H40.7867C42.8132 58.8203 44.3981 57.122 44.3333 55.0953ZM22.8 62.6953C18.6026 62.6953 15.2 59.2927 15.2 55.0953C15.2041 50.8996 18.6043 47.4994 22.8 47.4953C26.9974 47.4953 30.4 50.8979 30.4 55.0953C30.4 59.2926 26.9974 62.6953 22.8 62.6953ZM41.7683 55.3803C41.6583 55.8697 41.2761 56.2519 40.7867 56.362H32.9333V53.8287H40.7867C41.4862 53.986 41.9257 54.6806 41.7683 55.3803Z" fill="white"/>
<path d="M74.7315 56.3628H73.3508C72.6554 52.2284 68.7401 49.4404 64.6057 50.1358C61.4151 50.6724 58.9154 53.1722 58.3788 56.3628H55.7315V52.5628C55.7315 51.8632 55.1643 51.2961 54.4648 51.2961H51.9315V43.5859L64.7172 42.4294C65.1749 42.3881 65.5744 42.1022 65.7609 41.6821L70.4932 31.0294H74.7315C75.431 31.0294 75.9981 30.4623 75.9981 29.7628C75.9981 29.0632 75.431 28.4961 74.7315 28.4961H69.6648C69.1641 28.4961 68.7104 28.7909 68.5071 29.2485L63.7431 39.9683L50.5559 41.1628C49.8991 41.2194 49.3957 41.7703 49.3981 42.4294V51.4304C47.8392 51.9617 46.8106 53.4499 46.8648 55.0961C46.7573 57.0748 48.2641 58.7704 50.2417 58.8961H58.3788C59.0742 63.0305 62.9895 65.8184 67.1239 65.123C70.3144 64.5864 72.8142 62.0867 73.3508 58.8961H74.7315C75.431 58.8961 75.9981 58.3289 75.9981 57.6294C75.9981 56.9299 75.431 56.3628 74.7315 56.3628ZM53.1981 56.3628H50.2468C49.8478 56.3628 49.4032 55.8422 49.4032 55.0961C49.4032 54.35 49.8478 53.8294 50.2468 53.8294H53.1981V56.3628ZM65.8648 62.6961C63.0666 62.6961 60.7981 60.4276 60.7981 57.6294C60.7981 54.8312 63.0666 52.5628 65.8648 52.5628C68.663 52.5628 70.9315 54.8312 70.9315 57.6294C70.9315 60.4276 68.663 62.6961 65.8648 62.6961Z" fill="white"/>
<path d="M32.9315 28.3594L31.6648 16.9594C31.5934 16.3148 31.0467 15.8281 30.3982 15.8321H17.7315C17.032 15.8321 16.4648 16.3992 16.4648 17.0987V28.4987C16.4648 29.1982 17.032 29.7654 17.7315 29.7654H31.6648C32.3644 29.7697 32.935 29.206 32.9391 28.5065C32.9394 28.4572 32.9369 28.4082 32.9315 28.3594ZM18.9982 27.2321V18.3654H29.2645L30.25 27.2321H18.9982Z" fill="white"/>
<path d="M35.4698 42.4297C34.7703 42.4297 34.2031 42.9968 34.2031 43.6964V47.4964C34.2031 48.1959 34.7703 48.763 35.4698 48.763C36.1693 48.763 36.7365 48.1959 36.7365 47.4964V43.6964C36.7365 42.9967 36.1693 42.4297 35.4698 42.4297Z" fill="white"/>
<path d="M56.6409 66.8691L52.8371 63.0691C52.344 62.5729 51.542 62.5702 51.0457 63.0634C51.0013 63.1074 50.9603 63.1546 50.9231 63.2046L48.3531 66.6246L45.4765 60.8651C45.1639 60.2392 44.4031 59.9852 43.7774 60.2978C43.6843 60.3443 43.5972 60.4021 43.5182 60.4699L36.7365 66.2776V62.698C36.7365 61.9985 36.1693 61.4313 35.4698 61.4313C34.7703 61.4313 34.2031 61.9985 34.2031 62.698V69.0313C34.2031 69.7308 34.7703 70.298 35.47 70.2978C35.7724 70.2978 36.0648 70.1895 36.2944 69.9927L43.9286 63.4491L47.0028 69.5975C47.3125 70.2248 48.072 70.4823 48.6993 70.1727C48.8798 70.0838 49.0364 69.953 49.1561 69.7913L52.0796 65.8925L54.8498 68.6602C55.353 69.1463 56.1548 69.1323 56.6409 68.6291C57.1151 68.1382 57.1151 67.3599 56.6409 66.8691Z" fill="white"/>
<path d="M60.9634 24.7066C60.6095 24.6626 60.2534 24.7696 59.9825 25.0017L52.4256 31.4795L49.3045 24.1974C49.0287 23.5544 48.284 23.2569 47.6411 23.5325C47.2777 23.6883 47.0079 24.005 46.9118 24.3886L44.3784 34.522C44.2081 35.199 44.6177 35.8862 45.2942 36.0585C45.9729 36.2283 46.6607 35.8162 46.8307 35.1376L48.452 28.6522L50.7713 34.0622C51.047 34.7052 51.7918 35.0028 52.4346 34.727C52.5527 34.6764 52.6624 34.6081 52.76 34.5245L59.1389 29.0563L58.2788 35.9394C58.1922 36.6334 58.6845 37.2661 59.3783 37.353C59.4307 37.3601 59.4838 37.3634 59.5366 37.3631C60.1768 37.3649 60.7176 36.8888 60.797 36.2535L62.0636 26.1202C62.1501 25.4259 61.6575 24.793 60.9634 24.7066Z" fill="white"/>
</g>
<defs>
<clipPath id="clip0">
<rect width="76" height="76" fill="white"/>
</clipPath>
</defs>
</svg>
